img/stronghold_logo.svg

<svg width="177" height="38" viewBox="0 0 177 38" fill="none" xmlns="http://www.w3.org/2000/svg">
<g clip-path="url(#clip0)">
<path d="M58.2194 12.0682C57.2851 11.1028 55.5714 10.2304 54.0135 10.2304C51.7701 10.2304 50.8667 11.9125 50.8667 13.1899C50.8667 17.4585 60.9611 15.8695 60.9611 22.9412C60.9611 26.4311 58.4993 29.4222 53.9198 29.4222C51.0845 29.4222 48.5612 28.2695 46.5981 26.2438L48.779 24.063C50.0254 25.341 51.8321 26.2438 53.5774 26.2438C56.1317 26.2438 57.2534 24.4061 57.2534 23.0039C57.2534 18.86 47.19 20.5737 47.19 13.2836C47.19 9.91839 49.3709 7.052 53.6084 7.052C56.1937 7.052 58.6866 8.11168 60.4319 9.88736L58.2194 12.0682Z" fill="#233283"/>
<path d="M61.8071 15.1213H63.4581V12.0055H67.0101V15.1213H70.1569V17.8004H67.0101V24.2814C67.0101 25.6209 67.8197 26.5242 69.0978 26.5242C69.4713 26.5242 69.8448 26.4622 70.1569 26.2754V29.1102C69.6271 29.3596 69.0041 29.4222 68.4433 29.4222C65.3585 29.4222 63.4581 27.4276 63.4581 24.2814V17.8004H61.8071V15.1213Z" fill="#233283"/>
<path d="M79.5646 14.9656V17.9567C79.2215 17.8326 78.817 17.8003 78.4429 17.8003C77.1034 17.8003 75.9816 18.5175 75.2966 19.5766V29.1418H71.8694V15.1213H75.2966V16.5545C76.2621 15.5264 77.4148 14.9035 78.6923 14.9035C79.0037 14.9035 79.2531 14.9345 79.5646 14.9656Z" fill="#233283"/>
<path d="M87.6674 26.3689C89.9419 26.3689 91.4992 24.6553 91.4992 22.1314C91.4992 19.6075 89.9419 17.8939 87.6674 17.8939C85.393 17.8939 83.8351 19.6075 83.8351 22.1314C83.8351 24.6553 85.393 26.3689 87.6674 26.3689ZM87.6674 14.8413C92.0601 14.8413 95.0512 17.8008 95.0512 22.1314C95.0512 26.4626 92.0601 29.4221 87.6674 29.4221C83.2742 29.4221 80.2837 26.4626 80.2837 22.1314C80.2837 17.8008 83.2742 14.8413 87.6674 14.8413Z" fill="#233283"/>
<path d="M100.371 15.1215V16.1495C101.399 15.3082 102.676 14.8411 104.172 14.8411C107.381 14.8411 109.406 17.2397 109.406 20.7916V29.142H105.979V20.7916C105.979 19.0786 104.888 17.8942 103.268 17.8942C102.023 17.8942 101.025 18.3304 100.371 19.047V29.142H96.9438V15.1215H100.371Z" fill="#233283"/>
<path d="M117.234 22.599C118.699 22.599 119.726 21.5399 119.726 20.0441C119.726 18.5483 118.699 17.5202 117.234 17.5202C115.77 17.5202 114.742 18.5483 114.742 20.0441C114.742 21.5399 115.77 22.599 117.234 22.599ZM117.109 34.6255C119.29 34.6255 121.066 33.6905 121.066 32.382C121.066 31.1976 119.695 30.419 117.639 30.419C115.427 30.419 113.932 31.3229 113.932 32.6624C113.932 33.8462 115.115 34.6255 117.109 34.6255ZM113.309 28.9547C112.218 28.3628 111.751 27.5526 111.751 26.6176C111.751 25.6522 112.281 24.8735 113.402 24.2816C112 23.4087 111.283 21.8514 111.283 20.1378C111.283 16.9283 113.714 14.8412 117.203 14.8412C118.854 14.8412 120.256 15.3084 121.253 16.1186C121.939 15.3084 122.811 14.8412 123.745 14.8412C124.058 14.8412 124.307 14.8412 124.587 14.9038V17.6139C124.368 17.5518 124.088 17.5202 123.933 17.5202C123.465 17.5202 123.06 17.7696 122.717 18.1747C122.936 18.7356 123.06 19.3585 123.06 20.0441C123.06 23.1599 120.693 25.2781 117.141 25.2781C115.738 25.2781 115.084 25.8079 115.084 26.5245C115.084 27.2721 116.051 27.7703 117.639 27.7703C121.814 27.7703 124.618 29.6093 124.618 32.3193C124.618 35.2168 121.44 37.2108 117.141 37.2108C112.997 37.2108 110.349 35.3415 110.349 32.6624C110.349 30.8861 111.532 29.6713 113.309 28.9547Z" fill="#233283"/>
<path d="M129.598 5.77493V16.1498C130.626 15.3085 131.903 14.8413 133.399 14.8413C136.608 14.8413 138.634 17.2399 138.634 20.7918V29.1416H135.206V20.7918C135.206 19.0782 134.116 17.8944 132.496 17.8944C131.25 17.8944 130.253 18.3306 129.598 19.0472V29.1416H126.171V5.77493H129.598Z" fill="#233283"/>
<path d="M147.817 26.3689C150.092 26.3689 151.649 24.6553 151.649 22.1314C151.649 19.6075 150.092 17.8939 147.817 17.8939C145.542 17.8939 143.984 19.6075 143.984 22.1314C143.984 24.6553 145.542 26.3689 147.817 26.3689ZM147.817 14.8413C152.21 14.8413 155.2 17.8008 155.2 22.1314C155.2 26.4626 152.21 29.4221 147.817 29.4221C143.424 29.4221 140.433 26.4626 140.433 22.1314C140.433 17.8008 143.424 14.8413 147.817 14.8413Z" fill="#233283"/>
<path d="M162.06 29.1416C161.778 29.2657 161.062 29.2974 160.626 29.2974C158.29 29.2974 157.043 27.7705 157.043 25.5276V5.77496H160.47V25.4339C160.47 26.3689 161.125 26.8982 162.06 26.8982V29.1416Z" fill="#233283"/>
<path d="M170.318 26.3689C171.533 26.3689 172.561 25.9632 173.215 25.2472V18.9225C172.561 18.2996 171.533 17.8939 170.318 17.8939C168.013 17.8939 166.393 19.6075 166.393 22.1314C166.393 24.6553 168.013 26.3689 170.318 26.3689ZM173.215 29.1416V28.1446C172.156 28.9543 170.848 29.4221 169.384 29.4221C165.458 29.4221 162.841 26.4626 162.841 22.1314C162.841 17.8008 165.706 14.8413 170.007 14.8413C171.19 14.8413 172.281 15.0907 173.215 15.5579V5.77495H176.643V29.1416H173.215Z" fill="#233283"/>
<path d="M14.7415 8.82149e-05L14.729 19.6471L28.3444 26.3901C28.3444 26.3901 21.145 0.553803 20.991 0.00128984H20.9809H18.4671L18.7416 1.62479L18.7517 1.62898H16.0542L16.0602 1.62301L15.9707 8.82149e-05H14.7415Z" fill="url(#paint0_linear)"/>
<path d="M13.4825 8.82149e-05L13.393 1.62301L13.4013 1.62898H10.7062L10.7163 1.62479L10.9908 0.00128984H8.47224C8.47224 0.00248432 8.47166 0.00366688 8.47166 0.00485897H8.47046L1.11475 26.3901L14.7289 19.6471L14.7414 8.82149e-05H13.4825Z" fill="url(#paint1_linear)"/>
<path d="M1.11479 26.3901L0.0360304 29.4916C-0.033183 29.6915 -0.00157465 29.9123 0.121339 30.0847C0.243059 30.2565 0.441165 30.3591 0.652982 30.3591H28.8055C29.0173 30.3591 29.2154 30.2565 29.3377 30.0847C29.4601 29.9123 29.4917 29.6915 29.4225 29.4916L28.3443 26.3901L14.729 19.6472L1.11479 26.3901Z" fill="url(#paint2_linear)"/>
</g>
<defs>
<linearGradient id="paint0_linear" x1="21.5368" y1="23.5612" x2="21.5368" y2="-25.4445" gradientUnits="userSpaceOnUse">
<stop stop-color="#233283"/>
<stop offset="0.242075" stop-color="#0071F1"/>
<stop offset="0.291608" stop-color="#0071F1"/>
<stop offset="0.398516" stop-color="#0071F1"/>
<stop offset="1" stop-color="#00CEFF"/>
</linearGradient>
<linearGradient id="paint1_linear" x1="7.92789" y1="36.7044" x2="7.92789" y2="-17.2593" gradientUnits="userSpaceOnUse">
<stop stop-color="#3658BA"/>
<stop offset="0.242075" stop-color="#0071F1"/>
<stop offset="0.291608" stop-color="#0071F1"/>
<stop offset="0.398516" stop-color="#0071F1"/>
<stop offset="1" stop-color="#00CEFF"/>
</linearGradient>
<linearGradient id="paint2_linear" x1="1.73216e-05" y1="25.003" x2="29.4586" y2="25.003" gradientUnits="userSpaceOnUse">
<stop stop-color="#00EAFF"/>
<stop offset="0.556406" stop-color="#00A4FA"/>
<stop offset="0.696804" stop-color="#00A4FA"/>
<stop offset="0.748306" stop-color="#00A4FA"/>
<stop offset="1" stop-color="#4976FB"/>
</linearGradient>
<clipPath id="clip0">
<rect width="176.643" height="37.2107" fill="white"/>
</clipPath>
</defs>
</svg>

<svg width="177" height="38" viewBox="0 0 177 38" fill="none" xmlns="http://www.w3.org/2000/svg"><g clip-path="url(#clip0)"><path d="M58.22 12.068c-.935-.965-2.649-1.838-4.206-1.838-2.244 0-3.147 1.682-3.147 2.96 0 4.269 10.094 2.68 10.094 9.751 0 3.49-2.462 6.481-7.041 6.481-2.836 0-5.359-1.152-7.322-3.178l2.181-2.181c1.246 1.278 3.053 2.18 4.798 2.18 2.555 0 3.676-1.837 3.676-3.24 0-4.143-10.063-2.43-10.063-9.72 0-3.365 2.18-6.231 6.418-6.231 2.586 0 5.079 1.06 6.824 2.835l-2.213 2.181zm3.587 3.053h1.651v-3.116h3.552v3.116h3.147v2.68H67.01v6.48c0 1.34.81 2.243 2.088 2.243.373 0 .747-.062 1.059-.249v2.835c-.53.25-1.153.312-1.714.312-3.084 0-4.985-1.994-4.985-5.14V17.8h-1.65v-2.679zm17.758-.155v2.99c-.343-.123-.748-.156-1.122-.156-1.34 0-2.461.717-3.146 1.777v9.565h-3.428v-14.02h3.428v1.433c.965-1.029 2.118-1.652 3.395-1.652.312 0 .561.031.873.063zm8.102 11.403c2.275 0 3.832-1.714 3.832-4.238 0-2.523-1.557-4.237-3.832-4.237-2.274 0-3.832 1.714-3.832 4.237 0 2.524 1.558 4.238 3.832 4.238zm0-11.528c4.393 0 7.384 2.96 7.384 7.29 0 4.332-2.99 7.291-7.384 7.291-4.393 0-7.383-2.96-7.383-7.29 0-4.331 2.99-7.29 7.383-7.29zm12.704.28v1.028c1.028-.84 2.305-1.308 3.801-1.308 3.209 0 5.234 2.399 5.234 5.95v8.351h-3.427v-8.35c0-1.713-1.091-2.898-2.711-2.898-1.245 0-2.243.436-2.897 1.153v10.095h-3.427v-14.02h3.427zm16.863 7.478c1.465 0 2.492-1.06 2.492-2.555 0-1.496-1.027-2.524-2.492-2.524-1.464 0-2.492 1.028-2.492 2.524s1.028 2.555 2.492 2.555zm-.125 12.027c2.181 0 3.957-.935 3.957-2.244 0-1.184-1.371-1.963-3.427-1.963-2.212 0-3.707.904-3.707 2.243 0 1.184 1.183 1.964 3.177 1.964zm-3.8-5.671c-1.091-.592-1.558-1.402-1.558-2.337 0-.966.53-1.744 1.651-2.336-1.402-.873-2.119-2.43-2.119-4.144 0-3.21 2.431-5.297 5.92-5.297 1.651 0 3.053.467 4.05 1.278.686-.81 1.558-1.278 2.492-1.278.313 0 .562 0 .842.063v2.71a2.768 2.768 0 00-.654-.094c-.468 0-.873.25-1.216.655a5.1 5.1 0 01.343 1.87c0 3.115-2.367 5.233-5.919 5.233-1.403 0-2.057.53-2.057 1.247 0 .747.967 1.245 2.555 1.245 4.175 0 6.979 1.84 6.979 4.55 0 2.897-3.178 4.89-7.477 4.89-4.144 0-6.792-1.868-6.792-4.548 0-1.776 1.183-2.99 2.96-3.707zm16.289-23.18V16.15c1.028-.841 2.305-1.309 3.801-1.309 3.209 0 5.235 2.399 5.235 5.95v8.35h-3.428v-8.35c0-1.713-1.09-2.897-2.71-2.897-1.246 0-2.243.437-2.898 1.153v10.095h-3.427V5.775h3.427zm18.219 20.594c2.275 0 3.832-1.714 3.832-4.238 0-2.523-1.557-4.237-3.832-4.237s-3.833 1.714-3.833 4.237c0 2.524 1.558 4.238 3.833 4.238zm0-11.528c4.393 0 7.383 2.96 7.383 7.29 0 4.332-2.99 7.291-7.383 7.291s-7.384-2.96-7.384-7.29c0-4.331 2.991-7.29 7.384-7.29zm14.243 14.301c-.282.124-.998.155-1.434.155-2.336 0-3.583-1.527-3.583-3.77V5.776h3.427v19.659c0 .935.655 1.464 1.59 1.464v2.244zm8.258-2.773c1.215 0 2.243-.406 2.897-1.122v-6.325c-.654-.622-1.682-1.028-2.897-1.028-2.305 0-3.925 1.714-3.925 4.237 0 2.524 1.62 4.238 3.925 4.238zm2.897 2.773v-.997a6.23 6.23 0 01-3.831 1.277c-3.926 0-6.543-2.96-6.543-7.29 0-4.331 2.865-7.29 7.166-7.29 1.183 0 2.274.249 3.208.716V5.775h3.428v23.367h-3.428z" fill="#233283"/><path d="M14.742 0l-.013 19.647 13.615 6.743L20.991.001h-2.524l.275 1.624.01.004h-2.698l.006-.006L15.97 0h-1.229z" fill="url(#paint0_linear)"/><path d="M13.482 0l-.089 1.623.008.006h-2.695l.01-.004L10.991 0H8.472v.004H8.47L1.115 26.39l13.614-6.743L14.74 0h-1.258z" fill="url(#paint1_linear)"/><path d="M1.115 26.39L.036 29.492a.653.653 0 00.617.867h28.152a.653.653 0 00.617-.867l-1.078-3.102-13.615-6.743L1.115 26.39z" fill="url(#paint2_linear)"/></g><defs><linearGradient id="paint0_linear" x1="21.537" y1="23.561" x2="21.537" y2="-25.445" gradientUnits="userSpaceOnUse"><stop stop-color="#233283"/><stop offset=".242" stop-color="#0071F1"/><stop offset=".292" stop-color="#0071F1"/><stop offset=".399" stop-color="#0071F1"/><stop offset="1" stop-color="#00CEFF"/></linearGradient><linearGradient id="paint1_linear" x1="7.928" y1="36.704" x2="7.928" y2="-17.259" gradientUnits="userSpaceOnUse"><stop stop-color="#3658BA"/><stop offset=".242" stop-color="#0071F1"/><stop offset=".292" stop-color="#0071F1"/><stop offset=".399" stop-color="#0071F1"/><stop offset="1" stop-color="#00CEFF"/></linearGradient><linearGradient id="paint2_linear" x1="0" y1="25.003" x2="29.459" y2="25.003" gradientUnits="userSpaceOnUse"><stop stop-color="#00EAFF"/><stop offset=".556" stop-color="#00A4FA"/><stop offset=".697" stop-color="#00A4FA"/><stop offset=".748" stop-color="#00A4FA"/><stop offset="1" stop-color="#4976FB"/></linearGradient><clipPath id="clip0"><path fill="#fff" d="M0 0h176.643v37.211H0z"/></clipPath></defs></svg>
